X: 1
T: Argyll Is My Name
C: trad Scotland
R: jig
Z: 2013 John Chambers <jc:trillian.mit.edu>
B: RSCDS Graded #23
B: Originally Ours p. 149
M: 6/8
L: 1/8
K: D
A |\
"D"A>dd "Bm"dcd | "Em"fee "A7"e2g | "D"f>ed "A"c<aA | "A7"ABc "D"d2A |\
"D"A>dd "Bm"dcd | "Em"fee "A7"e2g | "D"f>ed "A"c<aA | "A7"ABc "D"d2A ||
"D"afd dfa | "D"agf "G"g2b | "D"afd dfa | "Em"agf "A"e2f |\
"Em"g>ag g>ag | "A7"A>BA g2a/g/ | "D"f>ed f<aA | "A7"ABc "D"d2 :|
